file/wall-street-journal.svg

<svg clip-rule="evenodd" fill-rule="evenodd" stroke-linejoin="round" stroke-miterlimit="1.41421" viewBox="0 0 560 400" xmlns="http://www.w3.org/2000/svg"><path d="m354.985-1359.7c-2.041 0-3.742 1.7-3.742 4 0 2.29 1.701 3.99 3.742 3.99 2.04 0 3.742-1.7 3.742-3.99 0-2.3-1.702-4-3.742-4m-135.399 7.74h17.179v-1.53l-1.869-.43c-1.702-.43-2.469-1.36-2.469-3.74v-23.13h3.999c2.466 0 3.742.59 3.911 5.78l.426 10.88c.34 9.78 3.147 12.51 7.911 12.51 4.847 0 6.123-3.32 6.123-8v-1.95h-1.788v1.44c0 3.15-.423 5.36-1.615 5.36-1.105 0-1.191-.85-1.446-4.76l-.509-7.49c-.681-10.03-1.957-13.52-9.357-14.88 7.06-1.87 11.397-7.06 11.397-14.46 0-9.61-7.569-14.2-14.798-14.2h-29.001v1.53l1.615.34c3.062.68 3.148 2.3 3.148 9.18v33.85c0 7.57-2.128 11.23-6.977 11.23-4.335 0-6.717-2.13-6.717-10.38v-40.22c0-2.39.764-3.07 2.635-3.49l2.297-.51v-1.53h-17.774v1.53l1.869.51c1.702.51 2.297 1.19 2.297 3.57v39.55c0 8.93 5.189 13.86 13.099 13.86 7.909 0 11.82-4.93 11.82-14.12v-36.91c0-4.59.938-6.21 4.678-6.21 2.977 0 4.254 1.02 4.254 3.83v47.29c0 2.38-.765 3.23-2.467 3.66l-1.871.51zm114.136-52.99c0-2.38.767-3.15 2.466-3.49l2.297-.51v-1.61h-17.69v1.53l1.871.51c1.702.51 2.466 1.19 2.466 3.57v47.63c0 2.29-.934 3.57-3.573 3.57-3.061 0-3.487-1.02-4.591-6.04l-10.886-50.94h-3.403l-10.374 49.33c-1.193 5.52-1.788 6.8-4.085 7.48l-1.446.43v1.53h12.163v-1.53l-1.786-.34c-2.552-.52-3.231-1.87-1.955-8.34l6.123-31.55 6.718 33.42c1.021 4.85.937 5.79-2.721 6.47l-1.786.34v1.53h45.076v-19.39h-1.616c-.85 8.93-2.635 17.35-9.865 17.35h-3.403zm-26.535 37.17v-2.3h-11.482l-.339 2.3zm-47.458-36.15v40.65c0 6.13 0 9.02-3.061 9.53l-1.531.26v1.53h12.501v-1.53c-5.442-.77-5.442-2.64-5.442-9.27v-38.62l-2.041-1.87 20.837 51.29h3.571v-47.29c0-6.97 0-8.51 3.403-9.44l1.191-.34v-1.53h-12.844v1.53l1.446.34c4.338.76 4.338 2.47 4.338 8.93v29.6l.851-.26-15.819-40.14h-12.163v1.53l1.191.34c1.362.42 2.127 1.95 3.572 4.76m-27.302-4.59h3.404c3.401 0 6.548 2.21 6.548 13.27 0 11.31-2.38 12.41-7.143 12.41h-2.809zm-56.641 26.7c0 24.58-2.041 28.07-6.465 28.07-4.422 0-6.378-3.49-6.378-27.9 0-23.64 2.127-27.04 6.378-27.04 4.424 0 6.465 3.4 6.465 26.87m9.271.51c0-16.24-5.189-29.68-15.736-29.68-10.63 0-15.649 13.44-15.649 29.68 0 16.33 5.188 29.77 15.649 29.77 10.802 0 15.736-13.44 15.736-29.77m-36.401-23.64c0-2.38.595-3.15 2.294-3.57l1.871-.51v-1.53h-17.604v1.53l2.125.51c1.701.42 2.638 1.02 2.638 3.49v40.9c0 5.7-.511 10.3-4.763 10.3-2.722 0-4.763-2.13-4.677-3.66.253-2.64 4.677-2.47 5.017-6.72.255-3.06-1.702-4.34-3.487-4.59-2.637-.34-5.867 1.87-5.954 6.29-.086 5.7 3.657 10.89 10.036 10.89 7.06 0 12.504-4.76 12.504-13.87zm-284.068 0c0-2.38.766-3.15 2.467-3.49l2.296-.51v-1.61h-17.69v1.53l1.871.51c1.701.51 2.467 1.19 2.467 3.57v47.63c0 2.29-.937 3.57-3.573 3.57-3.062 0-3.572-1.02-4.677-6.04l-10.887-50.94h-3.401l-10.377 49.33c-1.19 5.52-1.786 6.8-4.082 7.48l-1.446.43v1.53h12.162v-1.53l-1.786-.34c-2.551-.52-3.232-1.87-1.956-8.34l6.124-31.72 6.719 33.59c.935 4.85.935 5.79-2.722 6.47l-1.786.34v1.53h45.162v-19.39h-1.616c-.851 8.93-2.637 17.35-9.866 17.35h-3.403zm236.778-3.57h1.872c5.274 0 7.06 8.42 7.655 17.35h1.615v-19.39h-30.873v19.39h1.616c.596-8.93 2.382-17.35 7.655-17.35h1.871v50.86c0 2.38-.765 3.23-2.466 3.66l-2.211.51v1.53h18.371v-1.53l-2.638-.6c-1.616-.42-2.467-.94-2.467-3.57zm-38.867 27.13 2.636.08c3.828.09 4.932 1.54 5.7 10.81h1.615v-23.65h-1.615c-.937 7.4-1.958 10.55-5.614 10.63l-2.722.09v-25.09h5.869c6.549 0 7.995 8.25 8.93 17.35h1.616v-19.39h-29.342v1.53l1.871.51c1.955.51 2.466 1.7 2.466 3.66v47.2c0 2.38-.764 3.23-2.466 3.66l-1.871.51v1.53h30.192v-19.39h-1.616c-1.021 8.84-2.126 17.35-9.78 17.35h-5.869zm-32.064 0 2.637.08c3.827.09 4.933 1.54 5.698 10.81h1.616v-23.65h-1.616c-.935 7.4-1.956 10.55-5.612 10.63l-2.723.09v-25.09h5.869c6.549 0 7.995 8.42 8.93 17.35h1.616v-19.39h-30.192v1.53l2.721.51c1.956.51 2.467 1.7 2.467 3.66v47.2c0 2.38-.766 3.23-2.467 3.66l-1.871.51v1.53h30.192v-19.39h-1.615c-1.021 8.84-2.127 17.35-9.781 17.35h-5.869zm-34.955-27.13h2.552c3.401 0 6.548 2.21 6.548 13.27 0 11.14-2.38 12.41-7.143 12.41h-1.957zm-12.843 56.56h17.181v-1.53l-1.872-.43c-1.701-.43-2.466-1.36-2.466-3.74v-23.13h3.147c2.466 0 3.742 1.02 3.912 5.78l.425 10.88c.341 9.78 3.147 12.51 7.91 12.51 4.848 0 6.123-3.32 6.123-8v-1.95h-1.786v1.44c0 3.15-.424 5.36-1.615 5.36-1.106 0-1.192-.85-1.446-4.76l-.511-7.49c-.68-10.29-2.041-13.52-9.355-14.88 7.059-1.87 11.396-7.06 11.396-14.46 0-9.61-7.569-14.2-14.798-14.2h-16.245v1.53l1.871.51c1.702.51 2.466 1.19 2.466 3.57v47.29c0 2.38-.764 3.23-2.466 3.66l-1.871.51zm-13.012-56.56h1.871c5.273 0 7.059 8.42 7.655 17.35h1.615v-19.39h-30.873v19.39h1.616c.595-8.93 2.382-17.35 7.655-17.35h1.871v50.86c0 2.38-.766 3.23-2.466 3.66l-2.212.51v1.53h17.945v-1.53l-2.211-.51c-2.211-.51-2.466-2.21-2.466-3.66zm-19.647 41.33c0-17.43-19.135-22.02-19.135-34.7 0-2.72 1.02-6.8 5.272-6.8 6.124 0 8.42 7.91 9.441 17.52h1.616v-19.39h-1.021c-.425 1.87-1.191 2.72-2.295 2.72-1.957 0-2.978-3.06-7.655-3.06-7.23 0-12.163 6.04-12.163 13.95 0 14.37 19.137 20.41 19.137 33.67 0 6.04-2.808 9.45-6.634 9.45-5.698 0-9.441-6.72-10.461-17.52h-1.616v19.39h1.02c.851-2.81 1.956-3.07 2.891-3.07 1.617 0 3.318 3.41 8.25 3.41 7.57 0 13.353-6.55 13.353-15.57m-55.707-37.76c0-2.38.765-3.15 2.466-3.49l2.297-.51v-1.61h-17.69v1.53l1.871.51c1.7.51 2.466 1.19 2.466 3.57v47.29c0 2.38-.766 3.23-2.466 3.66l-1.871.51v1.53h27.811v-19.39h-1.617c-.849 8.93-2.636 17.35-9.865 17.35h-3.402zm-56.304 37.17v-2.3h-11.48l-.341 2.3zm-49.158 15.99h3.487l7.909-41.85h-1.19l8.675 41.85h3.062l10.377-49.33c1.105-5.19 1.7-6.98 3.742-7.49l1.616-.42v-1.53h-11.993v1.53l1.787.34c2.551.51 3.146 2.04 1.956 8.33l-6.719 33.09h1.021l-6.805-34.87c-.681-3.32-1.105-6.04 1.702-6.55l1.87-.34v-1.53h-16.414v1.53l1.105.25c1.702.43 1.957 1.45 2.637 4.68l2.636 12.67-.51-7.65-5.868 30.96h.765l-6.889-34.02c-.766-3.49-1.021-6.13 1.7-6.64l1.278-.25v-1.53h-16.756v1.53l1.616.42c1.53.43 2.382 1.19 3.403 5.87zm-45.416-29.6 2.636.08c3.827.09 4.933 1.54 5.698 10.81h1.616v-23.65h-1.616c-.935 7.4-1.955 10.55-5.613 10.63l-2.721.09v-25.09h5.868c6.548 0 7.995 8.42 8.93 17.35h1.616v-19.39h-29.342v1.53l1.872.51c1.955.51 2.466 1.7 2.466 3.66v47.2c0 2.38-.766 3.23-2.466 3.66l-1.872.51v1.53h30.193v-19.39h-1.617c-1.019 8.84-2.125 17.35-9.78 17.35h-5.868zm-53.497 29.43h17.435v-1.53l-1.955-.43c-1.532-.34-2.552-1.36-2.552-3.74v-23.22h12.842v23.22c0 2.38-1.02 3.4-2.551 3.74l-1.956.43v1.53h17.435v-1.53l-1.871-.51c-1.7-.43-2.467-1.37-2.467-3.75v-47.2c0-2.38.767-3.15 2.467-3.57l1.871-.51v-1.53h-17.435v1.53l1.956.51c1.446.42 2.551 1.02 2.551 3.49v21.85h-12.842v-21.85c0-2.39.936-3.07 2.552-3.49l1.955-.51v-1.53h-17.435v1.53l1.871.51c1.702.51 2.467 1.19 2.467 3.57v47.29c0 2.38-.765 3.23-2.467 3.66l-1.871.51zm-13.013-56.56h1.873c5.272 0 7.058 8.42 7.653 17.35h1.616v-19.39h-30.872v19.39h1.616c.595-8.93 2.381-17.35 7.653-17.35h1.871v50.86c0 2.38-.764 3.23-2.466 3.66l-2.211.51v1.53h18.371v-1.53l-2.636-.6c-1.616-.42-2.468-.94-2.468-3.57z" fill="#1c1c21" fill-rule="nonzero" transform="matrix(.712683 0 0 .712683 274.341 1184.4)"/></svg>

<?xml version="1.0" encoding="UTF-8" standalone="no"?>
<!DOCTYPE svg PUBLIC "-//W3C//DTD SVG 1.1//EN" "http://www.w3.org/Graphics/SVG/1.1/DTD/svg11.dtd">
<svg width="100%" height="100%" viewBox="0 0 560 400" version="1.1" xmlns="http://www.w3.org/2000/svg" xmlns:xlink="http://www.w3.org/1999/xlink" xml:space="preserve" xmlns:serif="http://www.serif.com/" style="fill-rule:evenodd;clip-rule:evenodd;stroke-linejoin:round;stroke-miterlimit:1.41421;">
    <g id="path38205" transform="matrix(0.712683,0,0,0.712683,274.341,1184.4)">
        <path d="M354.985,-1359.7C352.944,-1359.7 351.243,-1358 351.243,-1355.7C351.243,-1353.41 352.944,-1351.71 354.985,-1351.71C357.025,-1351.71 358.727,-1353.41 358.727,-1355.7C358.727,-1358 357.025,-1359.7 354.985,-1359.7M219.586,-1351.96L236.765,-1351.96L236.765,-1353.49L234.896,-1353.92C233.194,-1354.35 232.427,-1355.28 232.427,-1357.66L232.427,-1380.79L236.426,-1380.79C238.892,-1380.79 240.168,-1380.2 240.337,-1375.01L240.763,-1364.13C241.103,-1354.35 243.91,-1351.62 248.674,-1351.62C253.521,-1351.62 254.797,-1354.94 254.797,-1359.62L254.797,-1361.57L253.009,-1361.57L253.009,-1360.13C253.009,-1356.98 252.586,-1354.77 251.394,-1354.77C250.289,-1354.77 250.203,-1355.62 249.948,-1359.53L249.439,-1367.02C248.758,-1377.05 247.482,-1380.54 240.082,-1381.9C247.142,-1383.77 251.479,-1388.96 251.479,-1396.36C251.479,-1405.97 243.91,-1410.56 236.681,-1410.56L207.68,-1410.56L207.68,-1409.03L209.295,-1408.69C212.357,-1408.01 212.443,-1406.39 212.443,-1399.51L212.443,-1365.66C212.443,-1358.09 210.315,-1354.43 205.466,-1354.43C201.131,-1354.43 198.749,-1356.56 198.749,-1364.81L198.749,-1405.03C198.749,-1407.42 199.513,-1408.1 201.384,-1408.52L203.681,-1409.03L203.681,-1410.56L185.907,-1410.56L185.907,-1409.03L187.776,-1408.52C189.478,-1408.01 190.073,-1407.33 190.073,-1404.95L190.073,-1365.4C190.073,-1356.47 195.262,-1351.54 203.172,-1351.54C211.081,-1351.54 214.992,-1356.47 214.992,-1365.66L214.992,-1402.57C214.992,-1407.16 215.93,-1408.78 219.67,-1408.78C222.647,-1408.78 223.924,-1407.76 223.924,-1404.95L223.924,-1357.66C223.924,-1355.28 223.159,-1354.43 221.457,-1354L219.586,-1353.49L219.586,-1351.96ZM333.722,-1404.95C333.722,-1407.33 334.489,-1408.1 336.188,-1408.44L338.485,-1408.95L338.485,-1410.56L320.795,-1410.56L320.795,-1409.03L322.666,-1408.52C324.368,-1408.01 325.132,-1407.33 325.132,-1404.95L325.132,-1357.32C325.132,-1355.03 324.198,-1353.75 321.559,-1353.75C318.498,-1353.75 318.072,-1354.77 316.968,-1359.79L306.082,-1410.73L302.679,-1410.73L292.305,-1361.4C291.112,-1355.88 290.517,-1354.6 288.22,-1353.92L286.774,-1353.49L286.774,-1351.96L298.937,-1351.96L298.937,-1353.49L297.151,-1353.83C294.599,-1354.35 293.92,-1355.7 295.196,-1362.17L301.319,-1393.72L308.037,-1360.3C309.058,-1355.45 308.974,-1354.51 305.316,-1353.83L303.53,-1353.49L303.53,-1351.96L348.606,-1351.96L348.606,-1371.35L346.99,-1371.35C346.14,-1362.42 344.355,-1354 337.125,-1354L333.722,-1354L333.722,-1404.95ZM307.187,-1367.78L307.187,-1370.08L295.705,-1370.08L295.366,-1367.78L307.187,-1367.78ZM259.729,-1403.93L259.729,-1363.28C259.729,-1357.15 259.729,-1354.26 256.668,-1353.75L255.137,-1353.49L255.137,-1351.96L267.638,-1351.96L267.638,-1353.49C262.196,-1354.26 262.196,-1356.13 262.196,-1362.76L262.196,-1401.38L260.155,-1403.25L280.992,-1351.96L284.563,-1351.96L284.563,-1399.25C284.563,-1406.22 284.563,-1407.76 287.966,-1408.69L289.157,-1409.03L289.157,-1410.56L276.313,-1410.56L276.313,-1409.03L277.759,-1408.69C282.097,-1407.93 282.097,-1406.22 282.097,-1399.76L282.097,-1370.16L282.948,-1370.42L267.129,-1410.56L254.966,-1410.56L254.966,-1409.03L256.157,-1408.69C257.519,-1408.27 258.284,-1406.74 259.729,-1403.93M232.427,-1408.52L235.831,-1408.52C239.232,-1408.52 242.379,-1406.31 242.379,-1395.25C242.379,-1383.94 239.999,-1382.84 235.236,-1382.84L232.427,-1382.84L232.427,-1408.52ZM175.786,-1381.82C175.786,-1357.24 173.745,-1353.75 169.321,-1353.75C164.899,-1353.75 162.943,-1357.24 162.943,-1381.65C162.943,-1405.29 165.07,-1408.69 169.321,-1408.69C173.745,-1408.69 175.786,-1405.29 175.786,-1381.82M185.057,-1381.31C185.057,-1397.55 179.868,-1410.99 169.321,-1410.99C158.691,-1410.99 153.672,-1397.55 153.672,-1381.31C153.672,-1364.98 158.86,-1351.54 169.321,-1351.54C180.123,-1351.54 185.057,-1364.98 185.057,-1381.31M148.656,-1404.95C148.656,-1407.33 149.251,-1408.1 150.95,-1408.52L152.821,-1409.03L152.821,-1410.56L135.217,-1410.56L135.217,-1409.03L137.342,-1408.52C139.043,-1408.1 139.98,-1407.5 139.98,-1405.03L139.98,-1364.13C139.98,-1358.43 139.469,-1353.83 135.217,-1353.83C132.495,-1353.83 130.454,-1355.96 130.54,-1357.49C130.793,-1360.13 135.217,-1359.96 135.557,-1364.21C135.812,-1367.27 133.855,-1368.55 132.07,-1368.8C129.433,-1369.14 126.203,-1366.93 126.116,-1362.51C126.03,-1356.81 129.773,-1351.62 136.152,-1351.62C143.212,-1351.62 148.656,-1356.38 148.656,-1365.49L148.656,-1404.95ZM-135.412,-1404.95C-135.412,-1407.33 -134.646,-1408.1 -132.945,-1408.44L-130.649,-1408.95L-130.649,-1410.56L-148.339,-1410.56L-148.339,-1409.03L-146.468,-1408.52C-144.767,-1408.01 -144.001,-1407.33 -144.001,-1404.95L-144.001,-1357.32C-144.001,-1355.03 -144.938,-1353.75 -147.574,-1353.75C-150.636,-1353.75 -151.146,-1354.77 -152.251,-1359.79L-163.138,-1410.73L-166.539,-1410.73L-176.916,-1361.4C-178.106,-1355.88 -178.702,-1354.6 -180.998,-1353.92L-182.444,-1353.49L-182.444,-1351.96L-170.282,-1351.96L-170.282,-1353.49L-172.068,-1353.83C-174.619,-1354.35 -175.3,-1355.7 -174.024,-1362.17L-167.9,-1393.89L-161.181,-1360.3C-160.246,-1355.45 -160.246,-1354.51 -163.903,-1353.83L-165.689,-1353.49L-165.689,-1351.96L-120.527,-1351.96L-120.527,-1371.35L-122.143,-1371.35C-122.994,-1362.42 -124.78,-1354 -132.009,-1354L-135.412,-1354L-135.412,-1404.95ZM101.366,-1408.52L103.238,-1408.52C108.512,-1408.52 110.298,-1400.1 110.893,-1391.17L112.508,-1391.17L112.508,-1410.56L81.635,-1410.56L81.635,-1391.17L83.251,-1391.17C83.847,-1400.1 85.633,-1408.52 90.906,-1408.52L92.777,-1408.52L92.777,-1357.66C92.777,-1355.28 92.012,-1354.43 90.311,-1354L88.1,-1353.49L88.1,-1351.96L106.471,-1351.96L106.471,-1353.49L103.833,-1354.09C102.217,-1354.51 101.366,-1355.03 101.366,-1357.66L101.366,-1408.52ZM62.499,-1381.39L65.135,-1381.31C68.963,-1381.22 70.067,-1379.77 70.835,-1370.5L72.45,-1370.5L72.45,-1394.15L70.835,-1394.15C69.898,-1386.75 68.877,-1383.6 65.221,-1383.52L62.499,-1383.43L62.499,-1408.52L68.368,-1408.52C74.917,-1408.52 76.363,-1400.27 77.298,-1391.17L78.914,-1391.17L78.914,-1410.56L49.572,-1410.56L49.572,-1409.03L51.443,-1408.52C53.398,-1408.01 53.909,-1406.82 53.909,-1404.86L53.909,-1357.66C53.909,-1355.28 53.145,-1354.43 51.443,-1354L49.572,-1353.49L49.572,-1351.96L79.764,-1351.96L79.764,-1371.35L78.148,-1371.35C77.127,-1362.51 76.022,-1354 68.368,-1354L62.499,-1354L62.499,-1381.39ZM30.435,-1381.39L33.072,-1381.31C36.899,-1381.22 38.005,-1379.77 38.77,-1370.5L40.386,-1370.5L40.386,-1394.15L38.77,-1394.15C37.835,-1386.75 36.814,-1383.6 33.158,-1383.52L30.435,-1383.43L30.435,-1408.52L36.304,-1408.52C42.853,-1408.52 44.299,-1400.1 45.234,-1391.17L46.85,-1391.17L46.85,-1410.56L16.658,-1410.56L16.658,-1409.03L19.379,-1408.52C21.335,-1408.01 21.846,-1406.82 21.846,-1404.86L21.846,-1357.66C21.846,-1355.28 21.08,-1354.43 19.379,-1354L17.508,-1353.49L17.508,-1351.96L47.7,-1351.96L47.7,-1371.35L46.085,-1371.35C45.064,-1362.51 43.958,-1354 36.304,-1354L30.435,-1354L30.435,-1381.39ZM-4.52,-1408.52L-1.968,-1408.52C1.433,-1408.52 4.58,-1406.31 4.58,-1395.25C4.58,-1384.11 2.2,-1382.84 -2.563,-1382.84L-4.52,-1382.84L-4.52,-1408.52ZM-17.363,-1351.96L-0.182,-1351.96L-0.182,-1353.49L-2.054,-1353.92C-3.755,-1354.35 -4.52,-1355.28 -4.52,-1357.66L-4.52,-1380.79L-1.373,-1380.79C1.093,-1380.79 2.369,-1379.77 2.539,-1375.01L2.964,-1364.13C3.305,-1354.35 6.111,-1351.62 10.874,-1351.62C15.722,-1351.62 16.997,-1354.94 16.997,-1359.62L16.997,-1361.57L15.211,-1361.57L15.211,-1360.13C15.211,-1356.98 14.787,-1354.77 13.596,-1354.77C12.49,-1354.77 12.404,-1355.62 12.15,-1359.53L11.639,-1367.02C10.959,-1377.31 9.598,-1380.54 2.284,-1381.9C9.343,-1383.77 13.68,-1388.96 13.68,-1396.36C13.68,-1405.97 6.111,-1410.56 -1.118,-1410.56L-17.363,-1410.56L-17.363,-1409.03L-15.492,-1408.52C-13.79,-1408.01 -13.026,-1407.33 -13.026,-1404.95L-13.026,-1357.66C-13.026,-1355.28 -13.79,-1354.43 -15.492,-1354L-17.363,-1353.49L-17.363,-1351.96ZM-30.375,-1408.52L-28.504,-1408.52C-23.231,-1408.52 -21.445,-1400.1 -20.849,-1391.17L-19.234,-1391.17L-19.234,-1410.56L-50.107,-1410.56L-50.107,-1391.17L-48.491,-1391.17C-47.896,-1400.1 -46.109,-1408.52 -40.836,-1408.52L-38.965,-1408.52L-38.965,-1357.66C-38.965,-1355.28 -39.731,-1354.43 -41.431,-1354L-43.643,-1353.49L-43.643,-1351.96L-25.698,-1351.96L-25.698,-1353.49L-27.909,-1354C-30.12,-1354.51 -30.375,-1356.21 -30.375,-1357.66L-30.375,-1408.52ZM-50.022,-1367.19C-50.022,-1384.62 -69.157,-1389.21 -69.157,-1401.89C-69.157,-1404.61 -68.137,-1408.69 -63.885,-1408.69C-57.761,-1408.69 -55.465,-1400.78 -54.444,-1391.17L-52.828,-1391.17L-52.828,-1410.56L-53.849,-1410.56C-54.274,-1408.69 -55.04,-1407.84 -56.144,-1407.84C-58.101,-1407.84 -59.122,-1410.9 -63.799,-1410.9C-71.029,-1410.9 -75.962,-1404.86 -75.962,-1396.95C-75.962,-1382.58 -56.825,-1376.54 -56.825,-1363.28C-56.825,-1357.24 -59.633,-1353.83 -63.459,-1353.83C-69.157,-1353.83 -72.9,-1360.55 -73.92,-1371.35L-75.536,-1371.35L-75.536,-1351.96L-74.516,-1351.96C-73.665,-1354.77 -72.56,-1355.03 -71.625,-1355.03C-70.008,-1355.03 -68.307,-1351.62 -63.375,-1351.62C-55.805,-1351.62 -50.022,-1358.17 -50.022,-1367.19M-105.729,-1404.95C-105.729,-1407.33 -104.964,-1408.1 -103.263,-1408.44L-100.966,-1408.95L-100.966,-1410.56L-118.656,-1410.56L-118.656,-1409.03L-116.785,-1408.52C-115.085,-1408.01 -114.319,-1407.33 -114.319,-1404.95L-114.319,-1357.66C-114.319,-1355.28 -115.085,-1354.43 -116.785,-1354L-118.656,-1353.49L-118.656,-1351.96L-90.845,-1351.96L-90.845,-1371.35L-92.462,-1371.35C-93.311,-1362.42 -95.098,-1354 -102.327,-1354L-105.729,-1354L-105.729,-1404.95ZM-162.033,-1367.78L-162.033,-1370.08L-173.513,-1370.08L-173.854,-1367.78L-162.033,-1367.78ZM-211.191,-1351.79L-207.704,-1351.79L-199.795,-1393.64L-200.985,-1393.64L-192.31,-1351.79L-189.248,-1351.79L-178.871,-1401.12C-177.766,-1406.31 -177.171,-1408.1 -175.129,-1408.61L-173.513,-1409.03L-173.513,-1410.56L-185.506,-1410.56L-185.506,-1409.03L-183.719,-1408.69C-181.168,-1408.18 -180.573,-1406.65 -181.763,-1400.36L-188.482,-1367.27L-187.461,-1367.27L-194.266,-1402.14C-194.947,-1405.46 -195.371,-1408.18 -192.564,-1408.69L-190.694,-1409.03L-190.694,-1410.56L-207.108,-1410.56L-207.108,-1409.03L-206.003,-1408.78C-204.301,-1408.35 -204.046,-1407.33 -203.366,-1404.1L-200.73,-1391.43L-201.24,-1399.08L-207.108,-1368.12L-206.343,-1368.12L-213.232,-1402.14C-213.998,-1405.63 -214.253,-1408.27 -211.532,-1408.78L-210.254,-1409.03L-210.254,-1410.56L-227.01,-1410.56L-227.01,-1409.03L-225.394,-1408.61C-223.864,-1408.18 -223.012,-1407.42 -221.991,-1402.74L-211.191,-1351.79ZM-256.607,-1381.39L-253.971,-1381.31C-250.144,-1381.22 -249.038,-1379.77 -248.273,-1370.5L-246.657,-1370.5L-246.657,-1394.15L-248.273,-1394.15C-249.208,-1386.75 -250.228,-1383.6 -253.886,-1383.52L-256.607,-1383.43L-256.607,-1408.52L-250.739,-1408.52C-244.191,-1408.52 -242.744,-1400.1 -241.809,-1391.17L-240.193,-1391.17L-240.193,-1410.56L-269.535,-1410.56L-269.535,-1409.03L-267.663,-1408.52C-265.708,-1408.01 -265.197,-1406.82 -265.197,-1404.86L-265.197,-1357.66C-265.197,-1355.28 -265.963,-1354.43 -267.663,-1354L-269.535,-1353.49L-269.535,-1351.96L-239.342,-1351.96L-239.342,-1371.35L-240.959,-1371.35C-241.978,-1362.51 -243.084,-1354 -250.739,-1354L-256.607,-1354L-256.607,-1381.39ZM-310.104,-1351.96L-292.669,-1351.96L-292.669,-1353.49L-294.624,-1353.92C-296.156,-1354.26 -297.176,-1355.28 -297.176,-1357.66L-297.176,-1380.88L-284.334,-1380.88L-284.334,-1357.66C-284.334,-1355.28 -285.354,-1354.26 -286.885,-1353.92L-288.841,-1353.49L-288.841,-1351.96L-271.406,-1351.96L-271.406,-1353.49L-273.277,-1354C-274.977,-1354.43 -275.744,-1355.37 -275.744,-1357.75L-275.744,-1404.95C-275.744,-1407.33 -274.977,-1408.1 -273.277,-1408.52L-271.406,-1409.03L-271.406,-1410.56L-288.841,-1410.56L-288.841,-1409.03L-286.885,-1408.52C-285.439,-1408.1 -284.334,-1407.5 -284.334,-1405.03L-284.334,-1383.18L-297.176,-1383.18L-297.176,-1405.03C-297.176,-1407.42 -296.24,-1408.1 -294.624,-1408.52L-292.669,-1409.03L-292.669,-1410.56L-310.104,-1410.56L-310.104,-1409.03L-308.233,-1408.52C-306.531,-1408.01 -305.766,-1407.33 -305.766,-1404.95L-305.766,-1357.66C-305.766,-1355.28 -306.531,-1354.43 -308.233,-1354L-310.104,-1353.49L-310.104,-1351.96ZM-323.117,-1408.52L-321.244,-1408.52C-315.972,-1408.52 -314.186,-1400.1 -313.591,-1391.17L-311.975,-1391.17L-311.975,-1410.56L-342.847,-1410.56L-342.847,-1391.17L-341.231,-1391.17C-340.636,-1400.1 -338.85,-1408.52 -333.578,-1408.52L-331.707,-1408.52L-331.707,-1357.66C-331.707,-1355.28 -332.471,-1354.43 -334.173,-1354L-336.384,-1353.49L-336.384,-1351.96L-318.013,-1351.96L-318.013,-1353.49L-320.649,-1354.09C-322.265,-1354.51 -323.117,-1355.03 -323.117,-1357.66L-323.117,-1408.52Z" style="fill:rgb(28,28,33);fill-rule:nonzero;"/>
    </g>
</svg>
